public/static/img/assets/withdraw_color.svg

<svg width="40" height="40" viewBox="0 0 40 40" fill="none" xmlns="http://www.w3.org/2000/svg">
<rect width="40" height="40" rx="16" fill="#FFA346"/>
<path d="M21.1112 12.4281V17.3062C21.1112 17.5862 21 17.8547 20.802 18.0527C20.6041 18.2507 20.3355 18.3619 20.0556 18.3619C19.7756 18.3619 19.5071 18.2507 19.3091 18.0527C19.1111 17.8547 18.9999 17.5862 18.9999 17.3062V12.3214L17.0171 14.305C16.9191 14.403 16.8027 14.4808 16.6747 14.5338C16.5466 14.5868 16.4094 14.6141 16.2708 14.6141C15.9908 14.6141 15.7223 14.5029 15.5244 14.305C15.4264 14.207 15.3486 14.0906 15.2956 13.9625C15.2425 13.8345 15.2152 13.6972 15.2152 13.5586C15.2152 13.2787 15.3264 13.0102 15.5244 12.8122L20.0026 8.33398L24.4809 12.8122C24.5789 12.9102 24.6566 13.0266 24.7097 13.1547C24.7627 13.2827 24.79 13.42 24.79 13.5586C24.79 13.6972 24.7627 13.8345 24.7097 13.9625C24.6566 14.0906 24.5789 14.207 24.4809 14.305C24.3829 14.403 24.2665 14.4808 24.1384 14.5338C24.0104 14.5868 23.8731 14.6141 23.7345 14.6141C23.5959 14.6141 23.4586 14.5868 23.3306 14.5338C23.2025 14.4808 23.0861 14.403 22.9881 14.305L21.1112 12.4281ZM22.1665 15.7225H29.5559C30.1386 15.7225 30.6111 16.195 30.6111 16.7777V19.9452H9.5V16.7777C9.5 16.195 9.9725 15.7225 10.5552 15.7225H17.9446V17.3062C17.9389 17.5871 17.9893 17.8662 18.0928 18.1273C18.1963 18.3884 18.3509 18.6263 18.5475 18.8269C18.7441 19.0275 18.9787 19.1869 19.2377 19.2957C19.4966 19.4045 19.7747 19.4606 20.0556 19.4606C20.3364 19.4606 20.6145 19.4045 20.8735 19.2957C21.1324 19.1869 21.3671 19.0275 21.5636 18.8269C21.7602 18.6263 21.9148 18.3884 22.0183 18.1273C22.1218 17.8662 22.1722 17.5871 22.1665 17.3062V15.7225ZM30.6111 22.0557V29.4451C30.6111 30.0279 30.1386 30.5004 29.5559 30.5004H10.5552C9.9725 30.5004 9.5 30.0279 9.5 29.4451V22.0557H30.6111ZM11.6114 25.75H17.417V23.6404H11.6114V25.7509V25.75Z" fill="#171717"/>
</svg>

<svg width="40" height="40" fill="none" xmlns="http://www.w3.org/2000/svg"><rect width="40" height="40" rx="16" fill="#FFA346"/><path d="M21.111 12.428v4.878a1.056 1.056 0 1 1-2.111 0v-4.985l-1.983 1.984a1.055 1.055 0 1 1-1.493-1.493l4.479-4.478 4.478 4.478a1.056 1.056 0 0 1-1.493 1.493l-1.877-1.877Zm1.055 3.294h7.39c.583 0 1.055.473 1.055 1.056v3.167H9.5v-3.167c0-.583.473-1.055 1.055-1.055h7.39v1.583a2.112 2.112 0 1 0 4.221 0v-1.584Zm8.445 6.334v7.39c0 .582-.472 1.054-1.055 1.054h-19A1.055 1.055 0 0 1 9.5 29.445v-7.39h21.111Zm-19 3.694h5.806v-2.11h-5.806v2.11Z" fill="#171717"/></svg>
